X: 1
T: The Fantocini
B: Hendrickson's "John Griffiths Dancing Master."
R: jig
Z: 2004 John Chambers <jc@trillian.mit.edu>
M: 6/8
L: 1/8
Q: 3/8=104
K: F
|:"F"fcc c3 |"Dm"dAA A3  |"Gm"GBA "G7"GAF |"C7"EFG C3 \
| "F"fcc c3 |"Dm"dAA A2f | "C"edc "G7"GA=B | "C"c3  c3 :|
|:"C"gcc c3 |"C7"bcc c3  |"Bb"dcB  "F"AGF |"C7"EFG C3 \
| "F"fcc c3 |"Dm"dAA A3  |"Gm"GBA "C7"GFE | "F"F3   F3 :|
